X: 32751
T: Polska Efter Johnny Schönning
R: slip jig
M: 9/8
K: Bminor
|:~F3B2c d2e|ffe fa2 edc|ffd fed cBA|BBd cBA FF=F|
~F3B2c d2e|ffe fa2 edc|ffd fed cBA|1 B6 BAG:|2 B4 zD FAc||
|:d2{g}a f2d c2A|BBd c2A F2c|d2f f2d c2A|B2d c2A FED|
~F3B2c d2e|~f3 faa edc|ffd fed cBA|1 B4 zD FAc:|2 B3 A~B3AG||

